!!!!SEGMENT: Wil3037-Vous_marchez_du_bout_du_pie.krn
!!!id: Wil3037
!!!AGN: Chanson
!!!SCT: Bernstein (1984)
!!!voices: 3
!!!COM: Adrian Willaert
!!!OTL: Vous marchez du bout du pié
**kern	**kern	**kern
*part3	*part2	*part1
*staff3	*staff2	*staff1
*I"Bassus	*I"Tenor	*I"Superius
*I'B	*I'T	*I'S
*clefGv2	*clefG2	*clefG2
*k[b-]	*k[b-]	*k[b-]
*F:	*F:	*F:
*M2/1	*M2/1	*M2/1
*met(C|)	*met(C|)	*met(C|)
=1	=1	=1
0r	0r	1f
.	.	2cc
.	.	[2cc
=2	=2	=2
0r	0r	2cc]
.	.	2dd
.	.	2b-y
.	.	2cc
=3	=3	=3
1r	2r	[0a
.	1f	.
1F	.	.
.	2cc	.
=4	=4	=4
2f	1cc	1a]
1f	.	.
.	2dd	2r
2g	2b-y	2g
=5	=5	=5
2e	2cc	4g
.	.	4g
2f	1a	2a
1d	.	[1f
.	2a	.
=6	=6	=6
2.d	4a	1f]
.	4a	.
.	2b-y	.
4d	.	.
2d	4b-y	1r
.	4a	.
2e	[2g	.
=7	=7	=7
2e	4g]	2r
.	4f	.
2d	1b-y	2f
1c	.	2cc
.	2a	2cc
=8	=8	=8
1B-y	1b-y	2dd
.	.	1b-y
2G	1r	.
2c	.	2cc
=9	=9	=9
2c	2r	1a
2d	1f	.
2B-y	.	2r
2c	2cc	2g
=10	=10	=10
2A	2cc	2a
1B-y	2dd	2.f
.	2b-y	.
.	.	4g
2A	2cc	4a
.	.	4b-y
=11	=11	=11
2F	1a	4cc
.	.	4dd
1c	.	4ee
.	.	4ff
.	1g	4ee
.	.	4cc
2B-y	.	[2ff
=12	=12	=12
1c	1g	2ff]
.	.	2ee
1r	[1f	2.ff
.	.	4ee
=13	=13	=13
2.B-y	1f]	4dd
.	.	4cc
.	.	1dd
4c	.	.
2d	1r	.
2e-i	.	4cc
.	.	4b-y
=14	=14	=14
2d	2f	0ff
2.B-y	2f	.
.	1b-y	.
4c	.	.
4d	.	.
4e	.	.
=15	=15	=15
2f	2a	0r
2.g	1b-y	.
4f	.	.
[2f	2a	.
=16	=16	=16
2f]	1g	0r
2e	.	.
2.f	1f	.
4e	.	.
=17	=17	=17
4d	0r	2.f
4c	.	.
1d	.	.
.	.	4g
.	.	2a
4c	.	2b-y
4B-y	.	.
=18	=18	=18
1f	2cc	2a
.	2cc	2.f
1r	1ff	.
.	.	4g
.	.	4a
.	.	4b-y
=19	=19	=19
0r	2ee	2cc
.	1ff	2.dd
.	.	4cc
.	2ee	[2cc
=20	=20	=20
2r	1dd	2cc]
2G	.	2bnXi
2A	1cc	2cc
2c	.	4r
.	.	4cc
=21	=21	=21
2.B-y	0r	2dd
.	.	1ff
8AL	.	.
8GJ	.	.
2F	.	.
2c	.	2ee
=22	=22	=22
2d	1r	2.dd
1f	.	.
.	.	8ccL
.	.	8b-yJ
.	2r	4a
.	.	4g
2e	2cc	[2cc
=23	=23	=23
2.d	2dd	2cc]
.	1ff	2bnXi
8cL	.	.
8B-yJ	.	.
4A	.	1cc
4G	.	.
[2c	2ee	.
=24	=24	=24
2c]	2.dd	1r
2B-y	.	.
.	8ccL	.
.	8b-yJ	.
4c	4a	2cc
4d	4g	.
4e	[2cc	2cc
4f	.	.
=25	=25	=25
1d	2cc]	1.ff
.	2bnXi	.
1c	1cc	.
.	.	2ee
=26	=26	=26
2r	1g	2dd
2c	.	2.cc
2c	1r	.
.	.	4b-y
[2f	.	[2a
=27	=27	=27
2f]	2cc	2a]
2e	2cc	2g
2.d	2.ff	1a
4c	4ee	.
=28	=28	=28
2B-y	2dd	2r
2A	2cc	2cc
2r	2b-y	2dd
2F	2a	[2ff
=29	=29	=29
2c	2.g	2ff]
2c	.	1ee
.	4g	.
2d	2f	.
2B-y	[2g	[2dd
=30	=30	=30
2c	4g]	2dd]
.	4f	.
2A	1f	2cc
2.G	.	1b-y
.	2e	.
4G	.	.
=31	=31	=31
1F	2f	1a
.	1cc	.
1f	.	2r
.	2cc	2f
=32	=32	=32
2f	2cc	2cc
2f	2a	2cc
2d	2b-y	2dd
2e-X	2g	2b-y
=33	=33	=33
2c	2a	2cc
2d	2r	2.a
1r	2.a	.
.	.	4b-y
.	.	2cc
.	4a	.
=34	=34	=34
2r	2a	0f
2.d	2b-y	.
.	2b-y	.
4d	.	.
2d	2a	.
=35	=35	=35
2e	1g	1r
2e	.	.
2d	4f	2.a
.	4g	.
[2c	4a	.
.	4b-y	4a
=36	=36	=36
2c]	2cc	2a
2.B-y	4dd	2b-y
.	4cc	.
.	4dd	2b-y
8AL	4ee	.
8GJ	.	.
2F	[2ff	2a
=37	=37	=37
1c	2ff]	1g
.	2ee	.
[1F	1ff	[1f
=38	=38	=38
1F]	1r	0f]
1r	2.cc	.
.	4b-y	.
=39	=39	=39
2c	2a	0r
2c	2g	.
1f	2a	.
.	2f	.
=40	=40	=40
2e	2g	2.cc
1f	2.a	.
.	.	4b-y
.	.	2a
.	4f	.
2e	[2cc	2g
=41	=41	=41
1d	2cc]	2a
.	2b-y	2f
1c	2.cc	2g
.	.	[2a
.	4b-y	.
=42	=42	=42
1r	2cc	4a]
.	.	4f
.	2ee	1cc
2G	1dd	.
2G	.	2bnXi
=43	=43	=43
0c	0cc	1cc
.	.	2g
.	.	2g
=44	=44	=44
1c	0r	2.cc
.	.	4b-y
1c	.	2a
.	.	2g
=45	=45	=45
2.f	1r	2f
.	.	2cc
4e	.	.
2d	2f	2dd
2d	2f	2ff
=46	=46	=46
2c	2.cc	2ee
2F	.	1cc
.	4b-y	.
2F	2a	.
[2B-y	2g	[2dd
=47	=47	=47
2B-]	2f	4dd]
.	.	4cc
2c	2e	1cc
2G	1d	.
2G	.	2bnXi
=48	=48	=48
1c	2r	0cc
.	2g	.
2r	4a	.
.	4b-y	.
2c	4cc	.
.	4a	.
=49	=49	=49
2d	2b-y	1r
1f	2.a	.
.	.	2cc
.	4g	.
2e	[2cc	2cc
=50	=50	=50
2d	2cc]	1.ff
2d	2bnXi	.
1c	1cc	.
.	.	2ee
=51	=51	=51
2r	1g	2dd
2c	.	2.cc
2c	1r	.
.	.	4b-y
[2f	.	[2a
=52	=52	=52
2f]	2cc	2a]
2e	2cc	2g
2.d	2.ff	1a
4c	4ee	.
=53	=53	=53
2B-y	2dd	2r
2A	2cc	2cc
2r	2b-y	2dd
2F	2a	[2ff
=54	=54	=54
2c	2.g	2ff]
2c	.	1ee
.	4g	.
2d	2f	.
2B-y	[2g	[2dd
=55	=55	=55
2c	4g]	2dd]
.	4f	.
2A	1f	2cc
2.G	.	1b-y
.	2e	.
4G	.	.
=56	=56	=56
1F	2f	1a
.	1cc	.
1f	.	2r
.	2cc	2f
=57	=57	=57
2f	2cc	2cc
2f	2a	2cc
2d	2b-y	2dd
2e-X	2g	2b-y
=58	=58	=58
2c	2a	2cc
1d	2r	2.a
.	2.a	.
.	.	4g
2r	.	4f
.	4a	4e
=59	=59	=59
2r	2a	0f
2.d	2b-y	.
.	2b-y	.
4d	.	.
2d	2a	.
=60	=60	=60
2e	1g	1r
2e	.	.
2d	4f	2.a
.	4g	.
[2c	4a	.
.	4b-y	4a
=61	=61	=61
2c]	2cc	2a
2.B-y	4dd	2b-y
.	4cc	.
.	4dd	2b-y
8AL	4ee	.
8GJ	.	.
2F	[2ff	2a
=62	=62	=62
1c	2ff]	1g
.	2ee	.
[1F	1ff	1f
=63	=63	=63
1F]	2f	2.cc
.	2cc	.
.	.	4b-y
1r	2cc	2a
.	2dd	2f
=64	=64	=64
2r	2b-y	2g
2.f	2cc	2a
.	1a	2d
4e	.	.
2d	.	[2dd
=65	=65	=65
2B-y	2g	2dd]
2c	2g	2cc
2d	2f	2a
2G	[2b-y	[2dd
=66	=66	=66
2.d	4b-]	4dd]
.	4a	4cc
.	4g	1ff
4d	4f	.
1c	1g	.
.	.	2ee
=67	=67	=67
00Fl	00fl	00ffl
==	==	==
*-	*-	*-
!!!system-decoration: [*]
!!!RDF**kern: i = editorial accidental
!!!RDF**kern: l = terminal long
!!!ENC: Benjamin Ory
!!!END: 2023/10/10
!!!EED: Benjamin Ory
!!!EEV: 2023/10/10
!!!YEC: Copyright 2023 Benjamin Ory, All Rights Reserved
!!!ONB: Translated from MusicXML on 2023/10/10
